X: 290
T: The Blackbird
R: hornpipe
M: 4/4
L: 1/8
K: Dmaj
dc|B2d2 c2B2|ABAG ABcA|dcde dcAF|GAGF D2DE|
F2FG A2fe|dcde dcAF|GAGF D2D2|D6:|
|:de|f2d2 f2g2|abag fgaf|g2{a}gf gbaf|gagf d2de|
f2de f2g2|abag fgaf|gagf d2d2|defg abag|
fgaf gage|f2ed cA2B|c2de defg|a4 A3G|
FGAB =c3e|d^cAF GAGF|1 D2D2 D2:|2 D2D2D2D2 |]
F: https://thesession.org/tunes/1104#setting1104

